X: 10021
M: C|
L: 1/8
K: F
(A/B/c) Tc>B Acfc | (A/B/c) cd _eGGB |\
(A/B/c) TcB Acfc | (=e/f/g) g>e f2f :: b |\
affg {fg}Ta>gfe |
egfg ecc[1b |\
affg {fg}a>gfc | dbge f2f |][2 f/g/ |\
afge fdcB | Afge f2f |] c |\
(A/B/c) cf dBBd |
(A/B/c) cf fcac |\
(A/B/c) cf dBBd | cbge f2f :| g |\
bggb affa | gece cega |
bgbg afaf | ecfe f2fg |\
bggb affa | gece fdcB |\


